X: 15050
T: Gerald Campbell's
R: polka
M: 2/4
K: Ddorian
[M:2/4]|:AD- DC|EC EG|AD- DG|C2 EG|
AD- DC|EC EG|A/B/A GE|D2 D2:|
[M:2/4]|:G2 G2|Ad- dc|ed AG|[M:3/4] A/B/A GE DC|
EG Ad-|dc ed|AG A/B/A|[M:3/4] GE D2 D2:|

